www/assets/icons/piano.svg

<svg xmlns="http://www.w3.org/2000/svg" width="24" height="24" viewBox="0 0 24 24" fill='currentColor'><path d="M19 3H5c-1.1 0-2 .9-2 2v14c0 1.1.9 2 2 2h14c1.1 0 2-.9 2-2V5c0-1.1-.9-2-2-2m-5 11.5h.25V19h-4.5v-4.5H10c.55 0 1-.45 1-1V5h2v8.5c0 .55.45 1 1 1M5 5h2v8.5c0 .55.45 1 1 1h.25V19H5zm14 14h-3.25v-4.5H16c.55 0 1-.45 1-1V5h2z"/></svg>

<svg width="24" height="24" viewBox="0 0 24 24" xmlns="http://www.w3.org/2000/svg" fill='currentColor'><path d="M19 3H5C3.9 3 3 3.9 3 5V19C3 20.1 3.9 21 5 21H19C20.1 21 21 20.1 21 19V5C21 3.9 20.1 3 19 3ZM14 14.5H14.25V19H9.75V14.5H10C10.55 14.5 11 14.05 11 13.5V5H13V13.5C13 14.05 13.45 14.5 14 14.5ZM5 5H7V13.5C7 14.05 7.45 14.5 8 14.5H8.25V19H5V5ZM19 19H15.75V14.5H16C16.55 14.5 17 14.05 17 13.5V5H19V19Z"/></svg>
